X: 38570
T: Stolen Apples
R: slip jig
M: 9/8
K: Gmajor
G,3 G,2A, B,2D|E2D E2F E2D|B2E F3 G3|d2B e3 A3|
Bcd B2A G2F|E2D E2F E2D|CEG c3 A3|1 A,3 A2E FED:|2 A,3 A2E FGA||
B3 B2c B2A|e3 A2c B2A|Bcd B2A G2A|FED B,2D F2G|
B3 B2c B2A|e3 d2e f2d|g2d e2d Bcd|1 c2B A2G E3:|2 c2A FED CB,A,||

